resources/SLDS/icons/standard/restriction_policy.svg

<svg xmlns="http://www.w3.org/2000/svg" height="100" width="100" viewBox="0 0 100 100" fill="#fff"><path d="M64 48a16 16 0 1 0 16 16 16 16 0 0 0-16-16zm7 19H57a3 3 0 0 1 0-6h14a3 3 0 0 1 0 6zM36 20H26a6 6 0 0 0-6 6v9a6 6 0 0 0 6 6h10a6 6 0 0 0 6-6v-9a6 6 0 0 0-6-6zm-4.5 15h-1a4.5 4.5 0 0 1 0-9h1a4.5 4.5 0 0 1 0 9zM54 41h10a6 6 0 0 0 6-6v-9a6 6 0 0 0-6-6H54a6 6 0 0 0-6 6v9a6 6 0 0 0 6 6zm4.5-15h1a4.5 4.5 0 0 1 0 9h-1a4.5 4.5 0 0 1 0-9zM36 47H26a6 6 0 0 0-6 6v9a6 6 0 0 0 6 6h10a6 6 0 0 0 6-6v-9a6 6 0 0 0-6-6zm-4.5 15h-1a4.5 4.5 0 0 1 0-9h1a4.5 4.5 0 0 1 0 9z"/></svg>

<svg data-name="Layer 1" xmlns="http://www.w3.org/2000/svg" width="100" height="100" viewBox="0 0 100 100"><path d="M64,48A16,16,0,1,0,80,64,16,16,0,0,0,64,48Zm7,19H57a3,3,0,0,1,0-6H71a3,3,0,0,1,0,6Z" fill="#fff" fill-rule="evenodd"/><path d="M36,20H26a6,6,0,0,0-6,6v9a6,6,0,0,0,6,6H36a6,6,0,0,0,6-6V26A6,6,0,0,0,36,20ZM31.5,35h-1a4.5,4.5,0,0,1,0-9h1a4.5,4.5,0,0,1,0,9Z" fill="#fff" fill-rule="evenodd"/><path d="M54,41H64a6,6,0,0,0,6-6V26a6,6,0,0,0-6-6H54a6,6,0,0,0-6,6v9A6,6,0,0,0,54,41Zm4.5-15h1a4.5,4.5,0,0,1,0,9h-1a4.5,4.5,0,0,1,0-9Z" fill="#fff" fill-rule="evenodd"/><path d="M36,47H26a6,6,0,0,0-6,6v9a6,6,0,0,0,6,6H36a6,6,0,0,0,6-6V53A6,6,0,0,0,36,47ZM31.5,62h-1a4.5,4.5,0,0,1,0-9h1a4.5,4.5,0,0,1,0,9Z" fill="#fff" fill-rule="evenodd"/></svg>
